X: 36959
T: Shropshire Miner, The
R: waltz
M: 3/4
K: Gminor
G2 GG FE|D2 DD ED|CB, A,2 B,C|DC B,A, G,2|
G2 GG FG|A6|^FE ^FG AB|1 G4 D2:|2 G4 A2|
B3G AB|c6|A2 AB cA|d3e cd|
B2 A2 G2|B2 A2 G2|ed cB AB|1 G4 A2:|2 G4 z2||

